X:1
T:I Gave my Love a Cherry
M:4/4
L:1/8
K:C
 z4 z2 z E| GG GG A c2 d| c2 A2 G3 c| dd dd e g2 g| g2g-e d3 c| dd dd e g2 g|\
 g2 e2 d3 e| dc AG A c2 d| c2 A2 G3 z|
